assets/letters/Rosetta_Butik.svg

<?xml version="1.0" encoding="UTF-8"?>
<svg xmlns="http://www.w3.org/2000/svg" xmlns:xlink="http://www.w3.org/1999/xlink" width="141.7" height="141.7" viewBox="0 0 141.7 141.7">
<path fill-rule="nonzero" fill="rgb(0%, 0%, 0%)" fill-opacity="1" d="M 71.488281 85.144531 C 71.457031 85.804688 71.40625 86.378906 71.335938 86.875 C 71.265625 87.371094 71.164062 87.796875 71.03125 88.148438 C 70.902344 88.503906 70.722656 88.765625 70.5 88.9375 C 70.277344 89.109375 70.003906 89.195312 69.683594 89.195312 C 68.851562 89.195312 68.265625 88.621094 67.921875 87.464844 C 67.578125 86.3125 67.410156 84.304688 67.410156 81.429688 L 67.410156 77.003906 C 67.410156 73.464844 67.5 70.808594 67.679688 69.027344 C 67.863281 67.25 68.28125 65.964844 68.941406 65.175781 C 69.511719 64.488281 70.386719 63.886719 71.535156 63.351562 L 71.535156 82.949219 C 71.535156 83.757812 71.515625 84.492188 71.488281 85.144531 M 118.179688 73.910156 L 118.179688 89.011719 C 118.179688 89.253906 118.15625 89.578125 118.117188 89.984375 C 118.074219 90.386719 117.957031 90.753906 117.753906 91.074219 C 117.550781 91.398438 117.207031 91.5625 116.722656 91.5625 C 116.195312 91.5625 115.820312 91.371094 115.601562 90.984375 C 115.378906 90.601562 115.246094 90.125 115.207031 89.558594 C 115.164062 88.992188 115.144531 88.425781 115.144531 87.863281 L 115.144531 70.390625 C 115.144531 67.136719 114.992188 63.976562 114.691406 60.914062 C 114.386719 57.851562 113.515625 55.011719 112.082031 52.390625 C 110.644531 49.773438 108.25 47.484375 104.894531 45.523438 C 101.539062 43.5625 96.847656 42.03125 90.820312 40.929688 C 84.796875 39.828125 77.011719 39.277344 67.46875 39.277344 C 58.917969 39.277344 51.90625 39.710938 46.4375 40.578125 C 40.964844 41.449219 36.714844 42.632812 33.683594 44.128906 C 30.652344 45.625 28.539062 47.332031 27.34375 49.253906 C 26.152344 51.175781 25.554688 53.1875 25.554688 55.289062 C 25.554688 59.292969 27.261719 62.425781 30.679688 64.691406 C 34.097656 66.957031 39.082031 68.085938 45.632812 68.085938 C 49.230469 68.085938 52.738281 67.675781 56.15625 66.859375 C 59.574219 66.039062 62.394531 64.683594 64.617188 62.796875 C 66.839844 60.90625 67.953125 58.34375 67.953125 55.105469 C 67.953125 52.640625 67.296875 50.695312 65.984375 49.269531 C 64.667969 47.84375 63.097656 46.789062 61.265625 46.097656 C 59.4375 45.414062 57.691406 44.960938 56.035156 44.75 C 54.378906 44.539062 53.195312 44.410156 52.488281 44.371094 C 51.757812 44.308594 51.050781 44.214844 50.363281 44.082031 C 49.675781 43.953125 49.332031 43.582031 49.332031 42.976562 C 49.332031 42.125 50.074219 41.480469 51.5625 41.035156 C 53.046875 40.589844 55.011719 40.367188 57.460938 40.367188 C 60.269531 40.367188 62.566406 40.65625 64.34375 41.230469 C 66.125 41.808594 67.507812 42.582031 68.5 43.550781 C 69.492188 44.523438 70.199219 45.628906 70.625 46.871094 C 71.046875 48.117188 71.304688 49.40625 71.398438 50.738281 C 71.488281 52.074219 71.535156 53.386719 71.535156 54.683594 L 71.535156 62.464844 L 48.179688 71.910156 C 41.46875 74.617188 36.316406 76.921875 32.726562 78.824219 C 29.140625 80.722656 26.671875 82.527344 25.328125 84.238281 C 23.984375 85.945312 23.3125 87.863281 23.3125 89.984375 C 23.3125 94.59375 25.496094 97.839844 29.863281 99.71875 C 34.230469 101.597656 39.929688 102.539062 46.96875 102.539062 C 52.023438 102.539062 56.148438 102.121094 59.339844 101.28125 C 62.535156 100.441406 65.023438 99.332031 66.800781 97.945312 C 68.582031 96.558594 69.851562 95.023438 70.625 93.335938 C 71.390625 91.648438 71.859375 89.949219 72.019531 88.242188 C 72.152344 86.851562 72.214844 85.566406 72.238281 84.34375 L 75.015625 84.34375 C 75.335938 86.316406 75.929688 88.148438 76.808594 89.832031 C 78.183594 92.460938 80.136719 94.695312 82.664062 96.535156 C 85.191406 98.375 88.1875 99.777344 91.65625 100.734375 C 95.121094 101.695312 98.949219 102.175781 103.132812 102.175781 C 107.136719 102.175781 110.226562 101.78125 112.402344 100.992188 C 114.574219 100.203125 116.117188 99.148438 117.027344 97.824219 C 117.933594 96.5 118.476562 95.039062 118.648438 93.441406 C 118.820312 91.84375 118.90625 90.246094 118.90625 88.648438 L 118.90625 73.910156 Z M 118.179688 73.910156 "/>
</svg>

<?xml version="1.0" encoding="UTF-8"?>
<svg id="Layer_1" xmlns="http://www.w3.org/2000/svg" version="1.1" viewBox="0 0 141.7 141.7">
  <!-- Generator: Adobe Illustrator 29.2.1, SVG Export Plug-In . SVG Version: 2.1.0 Build 116)  -->
  <path d="M118.178,73.91v15.103c0,.242-.021.566-.062.971-.041.404-.161.768-.363,1.091-.202.324-.547.486-1.031.486-.526,0-.9-.192-1.121-.577-.223-.384-.354-.859-.395-1.426-.041-.565-.06-1.132-.06-1.698v-17.469c0-3.255-.152-6.414-.455-9.477s-1.174-5.904-2.609-8.522c-1.436-2.618-3.83-4.908-7.187-6.869-3.357-1.961-8.048-3.492-14.072-4.595-6.025-1.102-13.809-1.653-23.353-1.653-8.552,0-15.564.435-21.032,1.304-5.47.87-9.72,2.053-12.753,3.549-3.033,1.497-5.146,3.205-6.338,5.125-1.193,1.921-1.79,3.933-1.79,6.035,0,4.003,1.708,7.138,5.126,9.402,3.417,2.265,8.401,3.397,14.951,3.397,3.598,0,7.107-.409,10.525-1.228,3.417-.819,6.236-2.174,8.46-4.064,2.224-1.89,3.336-4.453,3.336-7.688,0-2.467-.657-4.413-1.971-5.838-1.314-1.426-2.886-2.482-4.715-3.169-1.831-.687-3.575-1.137-5.232-1.35-1.659-.212-2.842-.338-3.549-.379-.727-.06-1.436-.156-2.123-.288s-1.03-.5-1.03-1.107c0-.849.742-1.496,2.229-1.941,1.486-.444,3.451-.667,5.898-.667,2.81,0,5.105.288,6.885.864,1.779.576,3.164,1.349,4.154,2.32.99.97,1.698,2.078,2.123,3.321.425,1.244.683,2.532.774,3.867.09,1.335.136,2.649.136,3.943v7.783l-23.353,9.444c-6.713,2.709-11.863,5.014-15.452,6.915-3.589,1.9-6.056,3.705-7.4,5.413-1.345,1.709-2.017,3.624-2.017,5.747,0,4.61,2.184,7.855,6.551,9.735,4.367,1.88,10.069,2.821,17.105,2.821,5.055,0,9.179-.42,12.374-1.259,3.194-.839,5.68-1.951,7.46-3.336,1.779-1.384,3.052-2.921,3.821-4.61.768-1.688,1.234-3.386,1.395-5.095.132-1.39.196-2.674.221-3.897h2.779c.317,1.974.912,3.805,1.793,5.489,1.374,2.628,3.325,4.863,5.852,6.702,2.527,1.84,5.525,3.241,8.993,4.201,3.467.96,7.294,1.441,11.479,1.441,4.004,0,7.092-.394,9.266-1.183,2.174-.788,3.715-1.845,4.625-3.169.91-1.324,1.45-2.785,1.622-4.382.172-1.597.257-3.195.257-4.792v-14.739h-.727ZM71.487,85.146c-.03.657-.081,1.234-.152,1.729-.071.496-.172.92-.303,1.274-.131.354-.308.617-.531.788-.223.172-.496.258-.818.258-.829,0-1.415-.577-1.76-1.729-.344-1.152-.515-3.164-.515-6.036v-4.428c0-3.538.09-6.197.273-7.976.182-1.779.6-3.063,1.257-3.852.572-.686,1.448-1.291,2.594-1.824v19.596c0,.809-.016,1.542-.046,2.199Z"/>
</svg>
